!!!!SEGMENT: pl-wtm--iii-41-976--007_kurpinski-karol-kazimierz--wesele-w-ojcowie-moderato.krn
!!!cenid: 18xx:4259
!!!COM: Kurpiński, Karol Kazimierz
!!!COM-rismID: pe30018952
!!!CDT: 1785/03/06-1857/09/18
!!!CNT: Polish
!!!GTL: Wesele w Ojcowie
!!!OTL: Moderato
!!!OMV: 007
!!!PDT:
!!!AGN:
!!!SMS-siglum: PL-Wtm
!!!SMS-shelfmark: III.41.976
!!!SMS-shelfwork: 001-007 G
!!!SMS-variant:
!!!SMS-altvar:
!!!NIFC-rismSourceID: 1001130735
!!!NIFC-rismChildID: 1001130735
!!!NIFC-islandoraID: pl-wtm:23143
!!!URL-pdf-islandora: https://repozytorium.nifc.pl/islandora/object/pl-wtm:23143/datastream/PDF/view
!!!URL-scan: https://polish.musicsources.pl/pl/lokalizacje/galeria/druki-muzyczne/17811/8 @EN{Scan on Polish Music Sources Website} @PL{Skany w portalu Dziedzictwo Muzyki Polskiej w otwartym dostępie}
!!!IIIF:
!!!ONB-nifc: UWAGA: skan 8
!!!AIN: 2 piano
!!!key: E-
**kern	**fing	**kern	**fing	**dynam
*part2	*part2	*part1	*part1	*part1
*staff2	*	*staff1	*	*
*I"[Piano]	*	*I"[Piano]	*	*
*I'pf	*	*I'pf	*	*
*ICklav	*	*ICklav	*	*
*Ipiano	*	*Ipiano	*	*
*clefF4	*	*clefG2	*	*
*k[b-e-a-]	*	*k[b-e-a-]	*	*
*E-:	*	*E-:	*	*
*M4/4	*	*M4/4	*	*
*met(c)	*	*met(c)	*	*
=1	=1	=1	=1	=1
2E-\ 2e-	.	2ee-\	.	f
2BB-\ 2B-	.	2b-\	.	.
=2	=2	=2	=2	=2
4GG\ 4G	.	(4g/	.	.
*	*	*	*below	*
4r	.	8.gt/L	2	.
.	.	32f/LL	.	.
.	.	32g/JJJ	.	.
N(<(>2BB-\ 2D 2A-	.	4f/)	1	.
.	.	(8.fT/L	3	.
.	.	32e-/LL	.	.
.	.	32f/JJJ	.	.
=3	=3	=3	=3	=3
*^	*	*	*	*
2ryy	8E-\LN) 8G)	.	8e-'/L)	2	.
.	(16G\L	.	(16g/L	.	.
.	16A-\JJ	.	16a-/JJ	.	.
.	8B-\L)	.	8b-/L)	.	.
.	8G\J	.	8g/J	.	.
4ryy	[4E-\	.	4e-/	.	.
(8.c/L 8.e-	4E-\]	.	(8.cc^\L 8.ee-	.	.
16B-/Jk 16d	.	.	16b-\Jk) 16dd	.	.
!!LO:LB:g=original	!	!	!	!	!
=4	=4	=4	=4	=4	=4
4d/)	[2E-\	.	(4b-\ 4dd	.	.
4A-/ 4c	.	.	4a-\ 4cc	.	.
4G/ 4B-	4E-\]	.	4g/ 4b-	.	.
4BB-\ [4B-	4ryy	.	4f/) 4a-	.	.
*v	*v	*	*	*	*
=5	=5	=5	=5	=5
[4E-\ 4B-_	.	(4f^/ 4a-	.	.
8E-\] 8B-]	.	8e-/) 8g	.	.
8r	.	8r	.	.
2r	.	4r	.	.
.	.	(16aa-\LL	.	.
.	.	16gg\	.	.
.	.	16ff\	.	.
.	.	16ee-\JJ)	.	p
=6	=6	=6	=6	=6
!	!	!LO:TX:b:i:t=dolce	!	!
8BB-\L	.	(4.dd\	.	.
(8B-\	.	.	.	.
8d\ 8a-	.	.	.	.
8B-\J)	.	16ee-\LL	.	.
.	.	16ff\JJ	.	.
8E-\L	.	4ee-\)	.	.
(8B-\	.	.	.	.
8e-\ 8g	.	(16aa-\LL	.	.
.	.	16gg\	.	.
8B-\J)	.	16ff\	.	.
.	.	16ee-\JJ)	.	.
!!LO:LB:g=original	!	!	!	!
=7	=7	=7	=7	=7
8BB-\L	.	(4.dd\	.	.
(8B-\	.	.	.	.
8d\ 8a-	.	.	.	.
8B-\J)	.	16ee-\LL	.	.
.	.	16ff\JJ	.	.
8E-\L	.	4ee-\)	.	.
(8B-\	.	.	.	.
8e-\ 8g	.	(16aa-\LL	.	.
.	.	16gg\	.	.
8B-\J)	.	16ff\	.	.
.	.	16ee-\JJ)	.	.
=8	=8	=8	=8	=8
!	!	!	!	!LO:HP:t=cres.
8FF\L	.	(8dd\L	.	<
(8F\	.	8ff\	.	.
8B-\ 8d	.	8bb-\	.	.
8F\J)	.	8dd\J)	.	.
8FF\L	.	(8ff\L	.	.
(8F\	.	8ee-\	.	.
!LO:TX:t=P:problem: kasownik przy 8A- dopisany ołówkiem	!	!	!	!
8A-\ 8e-	.	8cc\	.	.
8F\J)	.	8dd\J)	.	.
=9	=9	=9	=9	=9
4B-\ 4d	.	4b-\	.	.
8.BB-\L 8.B-	.	8.d/L 8.b-	.	.
16BB-\Jk 16B-	.	16d/Jk 16b-	.	.
4BB-\ 4B-	.	4d/ 4b-	.	.
4r	.	4r	.	.
=10:|!	=10:|!	=10:|!	=10:|!	=10:|!
2E-\ 2B- 2e-	.	2g\ 2ee-	.	f
(8.g\L	.	(8.gg\L	.	.
16d\K	.	16dd\K	.	.
8.e-\	.	8.ee-\	.	.
16B-\Jk)	.	16b-\Jk)	.	.
!!LO:LB:g=original	!	!	!	!
=11	=11	=11	=11	=11
.	.	(8qdd/	.	.
((1BB- 1A-	.	8.cc\L)	.	.
.	.	16b-\Jk	.	.
.	.	(8qdd/	.	.
.	.	8.cc\L)	.	.
.	.	16b-\Jk	.	.
*	*	*	*above	*
.	.	(8.dd\L	1	.
.	.	16ee-\K	2	.
.	.	8.ff\	.	.
.	.	16dd\Jk)	.	.
=12	=12	=12	=12	=12
2E-\)) 2G	.	2ee-\	2	.
8.g\L	.	(8.gg\L	.	.
16d\K	.	16dd\K	.	.
8.e-\	.	8.ee-\	.	.
16B-\Jk	.	16b-\Jk)	.	.
=13	=13	=13	=13	=13
.	.	(8qdd/	.	.
((1BB- 1A-	.	8.cc\L)	.	.
.	.	16b-\Jk	.	.
.	.	(8qdd/	.	.
.	.	8.cc\L)	.	.
.	.	16b-\Jk	.	.
.	.	(8.dd\L	1	.
.	.	16ee-\	.	.
.	.	8.ff\	.	.
.	.	16dd\Jk)	.	.
=14	=14	=14	=14	=14
*^	*	*	*	*
16G/))	16E-\LL	3 1	(16ee-\LL	3	.
8.ryy	(16F\	2	16ff\	.	.
.	16G\	1	16gg\	.	.
.	16A-\JJ)	4	16aa-\JJ)	.	.
2.ryy	8B-'\L	3	8bb-'\L	.	.
.	8B-'\J	2	8bb-'\J	.	.
.	4B-^\	1	4bb-^\	.	.
.	(16B-\LL	.	(16bb-\LL	5	.
.	16A-\	.	16aa-\	.	.
.	16G\	.	16gg\	.	.
.	16F\JJ)	.	16ff\JJ)	.	.
*v	*v	*	*	*	*
!!LO:LB:g=original	!	!	!	!
=15	=15	=15	=15	=15
(>16E-\LL	5	(16ee-\LL	1	.
16F\	.	16ff\	.	.
16G\	.	16gg\	.	.
16A-\JJ)	.	16aa-\JJ)	.	.
8B-'\L	1	8bb-'\L	5	.
8B-'\J	.	8bb-'\J	.	.
4B-^\	.	4bb-^\	.	.
(16B-\LL	.	(16bb-\LL	.	.
16A-\	.	16aa-\	.	.
16G\	.	16gg\	.	.
16F\JJ)	.	16ff\JJ)	.	.
=16	=16	=16	=16	=16
8E-\	.	8ee-\	.	.
8r	.	8r	.	.
4E-\ 4e-	.	4g\ 4ee-	.	.
4BB-\ 4B-	.	4g\ 4ee-	.	.
4GG\ 4G	.	4g\ 4ee-	.	.
=17	=17	=17	=17	=17
4EE-/ 4E-	.	4g\ 4ee-	.	.
4r	.	4r	.	.
4EE-/ 4E-	.	4G/ 4e-	.	.
4r	.	4r	.	.
=18	=18	=18	=18	=18
1EE-;< 1E-	.	1G; 1e-	.	.
==	==	==	==	==
*-	*-	*-	*-	*-
!!!system-decoration: {(s1,s2)}
!!!RDF**kern: > = above
!!!RDF**kern: < = below
!!!RDF**kern: N = linked
!!!ENC: Berenika Jozajtis
!!!END: 2022-11-26
!!!ENC: Natalia Wrzos
!!!END: 2022-12-06
!!!YEC: Copyright 2022 Narodowy Instytut Fryderyka Chopina (https://polishscores.org)
!!!YEM: License CC-BY-4.0 (https://creativecommons.org/licenses/by/4.0)
